X: 702
T: Ey Dilber-i İşvebâz
C: Rahmi Bey
O: Turkey
F: http://compmusic.upf.edu/node/140
N: sehnaz--sarki--aydin--ey_dilber-i--rahmi_bey
N: makam= sehnaz
N: form= sarki
N: usul= aydin = 9/8
M: 9/8
L: 1/16
K: C _7/8B ^1/4f ^c ^g
Q: 1/4=264
%%MIDI tuningsystem comma53
g4 .a4 a4 a2g2 f2 | g2 a2=b2 =c'2b2 a2a2 g2=f2  | \
w:  ARANAĞME  |   | 
g2a2 =b2=c'2 b2d'2 c'2b2 a2 | 
w:   | 
=c'2 =b2a2 g2a4a6  | .a4 z4 z8 d2 | .a4z4z8e2  | \
w:   |   |   | 
.=c'3=b .a4 .E4 .A4 e2 | .=c'2 =b2.a4.D4.A4e2  | 
w:   |   | 
=c'2=b2 .a2e2 c'2b2 .a2.a2 e2 | .=c'2 =b2a2 e2c'3b.a2 .a2ag  | \
w:   |   | 
=g8 g8 ^3/4f2 | 
w:   | 
.a2 z6a2 g2f2 e2f2  | g2a2 g2f2 g2a2 g4 f2 | \
w:   |   | 
g2 a2g2 f2g2 a2g4fe  | 
w:   | 
f2e2 d2c2 d4 d6 | .d4z4z8A2  | .d4 z4 z8 z2 | \
w:   |   |   | 
e2 ^3/4f2=g2 a2g2 a2g4f2  | 
w:   | 
e2^3/4f2 =g2a2 g2a2 g4 f2 | =g3_ba2 g2f2 e2d2 c2B2  | \
w:   |   | 
A2B2 c2d2 e2d2 c4 d2 | 
w:   | 
c2 B2B2 A2A2 G2A4z2  | e2^3/4f2 =g2a2 g2a2 g4 f2 | \
w:   |   | 
e2 ^3/4f2=g2 a2g2 a2g4f2  | 
w:   | 
=g3_b a2g2 f2e2 d2c2 B2 | A2 B2c2 d2e2 d2c4d2  | \
w:   |   | 
c2B2 B2A2 A2G2 A4 z2 | 
w:   | 
A4a4a2 g2a4=b2  | =c'2=b2 a2{b}g2 a4 .e2.f2 .g2 | \
w:  Ey  dil ber_ *  i   |  iş *  ve *  *  baz   SAZ  | 
a4a2 =b2g2 f2e2 f2.a2  | 
w:  *  Ne dir  bu  *  sen  | 
g2f2 f2e2 e4 efed cB | A4a4a2 g2a4=b2  | \
w:  de *  ki  *  naz   SAZ  |  Ey  dil ber_ *  i   | 
=c'2=b2 a2{b}g2 a4 .e2.f2 .g2 | 
w:  iş *  ve *  *  baz   SAZ  | 
a4a2 =b2g2 f2e2 f2.a2  | g2f2 f2e2 e4 efed cd | \
w:  *  Ne dir  bu  *  sen  |  de *  ki  *  naz   SAZ  | 
e4d2 a2a4a4=g2  | 
w:  *  Ye ter  et ti  | 
=g4 g4 a2g2 f2e2 .d2 | z4e2 f2f2 e2f2 e2{=f}d2  | \
w:  ğin  ni yaz    |  İş te  ha *  zır   | 
c2d2 e2d2 d4 .A2.B2 .c2 | 
w:  in *  ce  *  saz   SAZ  | 
d4d2 e2c2 B2A6  | B4 c4 {e}d2{e}c2 B2A2 =G2 | \
w:  *  Oy na sa *  na   |  dil nü *  *  *  vaz    | 
=G4=g2 g2g2 f2e2 d2e2  | 
w:  *  Gö nül_ eğ *  len  | 
c2B2 B2A2 A4 A2B2 c2 | d4d2 e2c2 B2A6  | \
w:  sin  *  bi *  raz   SAZ  |  *  Oy na sa *  na   | 
B4 c4 {e}d2{e}c2 B2A2 =G2 | 
w:  dil nü *  *  *  vaz    | 
=G4=g2 g2g2 f2e2 d2e2  | c2B2 B2A2 A4 cdef ga | \
w:  *  Gö nül_ eğ *  len  |  sin  *  bi *  raz   SAZ  | 
g4.a4a4a2 g2f2  | 
w:  ARANAĞME  | 
g2a2 =b2=c'2 b2a2 a2g2 =f2 | g2 a2=b2 =c'2b2 d'2c'2 b2a2  | \
w:   |   | 
=c'2=b2 a2g2 a4 a6 | 
w:   | 
.a4z4z8d2  | .a4 z4 z8 e2 | .=c'3=b.a4.E4.A4e2  | \
w:   |   |   | 
.=c'2=b2 .a4 .D4 .A4 e2 | =c'2 =b2.a2 e2c'2 b2.a2 .a2e2  | 
w:   |   | 
.=c'2=b2 a2e2 c'3b .a2.a2 ag | =g8g8^3/4f2  | \
w:   |   | 
.a2z6 a2g2 f2e2 f2 | g2 a2g2 f2g2 a2g4f2  | 
w:   |   | 
g2a2 g2f2 g2a2 g4 fe | f2 e2d2 c2d4d6  | \
w:   |   | 
.d4 z4 z8 A2 | .d4z4z8z2  | 
w:   |   | 
e2^3/4f2 =g2a2 g2a2 g4 f2 | e2 ^3/4f2=g2 a2g2 a2g4f2  | \
w:   |   | 
=g3_b a2g2 f2e2 d2c2 B2 | 
w:   | 
A2 B2c2 d2e2 d2c4d2  | c2B2 B2A2 A2G2 A4 z2 | \
w:   |   | 
e2 ^3/4f2=g2 a2g2 a2g4f2  | 
w:   | 
e2^3/4f2 =g2a2 g2a2 g4 f2 | =g3_ba2 g2f2 e2d2 c2B2  | \
w:   |   | 
A2B2 c2d2 e2d2 c4 d2 | 
w:   | 
c2 B2B2 A2A2 G2A4z2  | A4 a4 a2g2 a4 =b2 | \
w:   |  Ey  dil ber_ *  i   | 
=c'2 =b2a2 {b}g2a4.e2 .f2.g2  | 
w:  iş *  ve *  *  baz   SAZ  | 
a4 a2=b2 g2f2 e2f2 .a2 | g2 f2f2 e2e4ef edcB  | \
w:  *  Ne dir  bu  *  sen  |  de *  ki  *  naz   SAZ  | 
A4 a4 a2g2 a4 =b2 | 
w:  Ey  dil ber_ *  i   | 
=c'2 =b2a2 {b}g2a4.e2 .f2.g2  | a4 a2=b2 g2f2 e2f2 .a2 | \
w:  iş *  ve *  *  baz   SAZ  |  *  Ne dir  bu  *  sen  | 
g2 f2f2 e2e4ef edcd  | 
w:  de *  ki  *  naz   SAZ  | 
e4 d2a2 a4 a4 =g2 | =g4g4a2 g2f2 e2.d2  | \
w:  *  Ye ter  et ti  |  ğin  ni yaz    | 
z4 e2f2 f2e2 f2e2 {=f}d2 | 
w:  İş te  ha *  zır   | 
c2 d2e2 d2d4.A2 .B2.c2  | d4 d2e2 c2B2 A6 | \
w:  in *  ce  *  saz   SAZ  |  *  Oy na sa *  na   | 
B4c4{e}d2 {e}c2B2 A2=G2  | 
w:  dil nü *  *  *  vaz    | 
=G4 =g2g2 g2f2 e2d2 e2 | c2 B2B2 A2A4A2 B2c2  | \
w:  *  Gö nül_ eğ *  len  |  sin  *  bi *  raz   SAZ  | 
d4 d2e2 c2B2 A6 | 
w:  *  Oy na sa *  na   | 
B4c4{e}d2 {e}c2B2 A2=G2  | =G4 =g2g2 g2f2 e2d2 e2 | \
w:  dil nü *  *  *  vaz    |  *  Gö nül_ eğ *  len  | 
c2 B2B2 A2A8-A2  | 
w:  na KARAR ta *  lım    | 
|


